app/assets/images/idv/laptop-icon.svg

<svg width="100" height="100" viewBox="0 0 100 100" fill="none" xmlns="http://www.w3.org/2000/svg">
<g filter="url(#filter0_d_279_8459)">
<path d="M50 94C74.3005 94 94 74.3005 94 50C94 25.6995 74.3005 6 50 6C25.6995 6 6 25.6995 6 50C6 74.3005 25.6995 94 50 94Z" fill="white"/>
</g>
<path d="M49.9999 89.6C71.8704 89.6 89.5999 71.8705 89.5999 50C89.5999 28.1295 71.8704 10.4 49.9999 10.4C28.1294 10.4 10.3999 28.1295 10.3999 50C10.3999 71.8705 28.1294 89.6 49.9999 89.6Z" fill="#AFB8C3"/>
<path d="M50.0001 85.64C69.6835 85.64 85.6401 69.6834 85.6401 50C85.6401 30.3166 69.6835 14.36 50.0001 14.36C30.3167 14.36 14.3601 30.3166 14.3601 50C14.3601 69.6834 30.3167 85.64 50.0001 85.64Z" fill="white"/>
<path d="M77.1063 21.6062H22.8958C21.2314 21.6062 19.8787 22.9564 19.8787 24.6233V59.5267H80.1235V24.6233C80.1235 22.9564 78.7733 21.6062 77.1063 21.6062ZM74.4513 55.2373H25.5509V25.8956H74.4513V55.2373Z" fill="#C8D3DD" stroke="#1B1B1B" stroke-width="2" stroke-miterlimit="10"/>
<path d="M74.4516 25.8956H25.5513V55.2373H74.4516V25.8956Z" fill="#EDF3FB"/>
<path d="M75.4572 56.243H24.5454V24.8899H75.4572V56.243ZM26.5568 54.2316H73.4458V26.9013H26.5568V54.2316Z" fill="#1B1B1B"/>
<path d="M87.835 77.534L80.1237 59.5267H19.8789L12.1676 77.534C11.6094 78.8364 12.5648 80.2871 13.9829 80.2871H41.1095L41.8185 74.9518H58.184L58.893 80.2871H86.0197C87.4377 80.2871 88.3932 78.8364 87.835 77.534ZM22.4384 71.1653L24.6359 64.9424H75.3692L77.5641 71.1653H22.4384Z" fill="#C8D3DD" stroke="#1B1B1B" stroke-width="2" stroke-miterlimit="10"/>
<path d="M77.5642 71.1652H22.4385L24.636 64.9424H75.3692L77.5642 71.1652Z" fill="#EDF3FB"/>
<path d="M78.9847 72.171H21.0154L23.9244 63.9367H76.0807L78.9847 72.171ZM23.859 70.1596H76.1411L74.6551 65.9481H25.345L23.8565 70.1596H23.859Z" fill="#1B1B1B"/>
<path d="M58.8929 80.0382H41.1094L41.8184 74.9518H58.1839L58.8929 80.0382Z" fill="#EDF3FB"/>
<path d="M60.0473 81.0439H39.9531L40.9412 73.9461H59.0567L60.0473 81.0439ZM42.2638 79.0325H57.7367L57.3067 75.9575H42.6912L42.2612 79.0325H42.2638Z" fill="#1B1B1B"/>
<defs>
<filter id="filter0_d_279_8459" x="0" y="0" width="100" height="100" filterUnits="userSpaceOnUse" color-interpolation-filters="sRGB">
<feFlood flood-opacity="0" result="BackgroundImageFix"/>
<feColorMatrix in="SourceAlpha" type="matrix" values="0 0 0 0 0 0 0 0 0 0 0 0 0 0 0 0 0 0 127 0" result="hardAlpha"/>
<feOffset/>
<feGaussianBlur stdDeviation="3"/>
<feComposite in2="hardAlpha" operator="out"/>
<feColorMatrix type="matrix" values="0 0 0 0 0 0 0 0 0 0 0 0 0 0 0 0 0 0 0.24 0"/>
<feBlend mode="normal" in2="BackgroundImageFix" result="effect1_dropShadow_279_8459"/>
<feBlend mode="normal" in="SourceGraphic" in2="effect1_dropShadow_279_8459" result="shape"/>
</filter>
</defs>
</svg>

<svg width="100" height="100" viewBox="0 0 100 100" fill="none" xmlns="http://www.w3.org/2000/svg"><g filter="url(#a)"><path d="M50 94c24.3 0 44-19.7 44-44S74.3 6 50 6 6 25.7 6 50s19.7 44 44 44Z" fill="#fff"/></g><path d="M50 89.6c21.87 0 39.6-17.73 39.6-39.6S71.87 10.4 50 10.4 10.4 28.13 10.4 50 28.13 89.6 50 89.6Z" fill="#AFB8C3"/><path d="M50 85.64c19.683 0 35.64-15.957 35.64-35.64S69.683 14.36 50 14.36 14.36 30.317 14.36 50 30.317 85.64 50 85.64Z" fill="#fff"/><path d="M77.106 21.606h-54.21a3.018 3.018 0 0 0-3.017 3.017v34.904h60.245V24.623a3.016 3.016 0 0 0-3.018-3.017Zm-2.655 33.631h-48.9V25.896h48.9v29.341Z" fill="#C8D3DD" stroke="#1B1B1B" stroke-width="2" stroke-miterlimit="10"/><path d="M74.452 25.896h-48.9v29.341h48.9V25.896Z" fill="#EDF3FB"/><path d="M75.457 56.243H24.545V24.89h50.912v31.353Zm-48.9-2.011h46.889v-27.33h-46.89v27.33Z" fill="#1B1B1B"/><path d="m87.835 77.534-7.711-18.007H19.879l-7.711 18.007a1.975 1.975 0 0 0 1.815 2.753h27.126l.71-5.335h16.365l.709 5.335H86.02a1.975 1.975 0 0 0 1.815-2.753Zm-65.397-6.369 2.198-6.223h50.733l2.195 6.223H22.438Z" fill="#C8D3DD" stroke="#1B1B1B" stroke-width="2" stroke-miterlimit="10"/><path d="M77.564 71.165H22.44l2.197-6.223H75.37l2.195 6.223Z" fill="#EDF3FB"/><path d="M78.985 72.171h-57.97l2.91-8.234H76.08l2.904 8.234ZM23.859 70.16h52.282l-1.486-4.212h-49.31l-1.488 4.212h.002Z" fill="#1B1B1B"/><path d="M58.893 80.038H41.109l.71-5.086h16.365l.709 5.086Z" fill="#EDF3FB"/><path d="M60.047 81.044H39.953l.988-7.098h18.116l.99 7.098Zm-17.783-2.011h15.473l-.43-3.076H42.69l-.43 3.076h.003Z" fill="#1B1B1B"/><defs><filter id="a" x="0" y="0" width="100" height="100" filterUnits="userSpaceOnUse" color-interpolation-filters="sRGB"><feFlood flood-opacity="0" result="BackgroundImageFix"/><feColorMatrix in="SourceAlpha" values="0 0 0 0 0 0 0 0 0 0 0 0 0 0 0 0 0 0 127 0" result="hardAlpha"/><feOffset/><feGaussianBlur stdDeviation="3"/><feComposite in2="hardAlpha" operator="out"/><feColorMatrix values="0 0 0 0 0 0 0 0 0 0 0 0 0 0 0 0 0 0 0.24 0"/><feBlend in2="BackgroundImageFix" result="effect1_dropShadow_279_8459"/><feBlend in="SourceGraphic" in2="effect1_dropShadow_279_8459" result="shape"/></filter></defs></svg>
